themes/lc/static/images/lc-logomark.svg

<?xml version="1.0" encoding="UTF-8" standalone="no"?>
<svg id="Layer_1" xmlns:rdf="http://www.w3.org/1999/02/22-rdf-syntax-ns#" xmlns="http://www.w3.org/2000/svg" enable-background="new 0 0 105.218 105.219" xml:space="preserve" height="105.22px" viewBox="0 0 105.218 105.219" width="105.22px" version="1.1" y="0px" x="0px" xmlns:cc="http://creativecommons.org/ns#" xmlns:dc="http://purl.org/dc/elements/1.1/">
<path id="path3" d="m54.596 75.944c-1.682 4.588-2.525 9.749-2.525 13.186 0 8.596 3.367 13.185 9.261 13.185h0.42c5.472 0 19.784-4.018 38.306-21.21 1.618-1.508 3.36-3.207 5.16-5.019v-29.947c-4.397 4.283-9.472 8.096-14.421 11.465-12.21 8.025-26.523 14.898-36.203 18.335" fill="#7C6A56"/>
<path id="path5" d="m30.183 86.835c0-2.293 0.42-6.303 0.84-8.025-7.576 0.58-13.89 0-18.52-1.143-4.105-1.081-8.46-2.731-12.503-5.181v32.732h36.371c-4.186-4.1-6.188-10.233-6.188-17.812v-0.573z" fill="#7C6A56"/>
<path id="path7" d="m12.081 4.305c0 1.143-1.685 1.723-3.367 2.865-3.309 2.064-6.246 4.69-8.714 7.761v46.65c4.701 5.514 10.973 9.248 17.552 10.926 4.209 1.151 9.261 1.724 14.736 1.724 3.786-15.48 13.47-28.656 20.626-36.11 15.889-16.513 36.76-30.754 52.304-30.941v-7.18h-105.22v9.661c2.433-2.03 4.963-3.655 7.452-4.785 1.262-0.571 4.629-1.715 4.629-0.571" fill="#82D1E3"/>
<path id="path9" d="m75.016 105.22h30.202v-21.867c-1.071 1.062-2.097 2.042-3.055 2.911-9.285 8.431-18.455 14.806-27.144 18.956" fill="#7C6A56"/>
<path id="path11" d="m103 22.649c0.42-5.16-1.262-8.025-5.051-8.025-3.79 0-10.104 5.731-18.522 16.622-6.734 8.596-17.26 26.933-22.309 38.395 8.419-2.864 19.784-9.167 28.623-17.192 10.529-9.741 16.839-21.783 17.259-29.8" fill="#82D1E3"/>
</svg>

<?xml version="1.0" encoding="utf-8"?>
<!-- Generator: Adobe Illustrator 16.0.3, SVG Export Plug-In . SVG Version: 6.00 Build 0)  -->
<!DOCTYPE svg PUBLIC "-//W3C//DTD SVG 1.1//EN" "http://www.w3.org/Graphics/SVG/1.1/DTD/svg11.dtd">
<svg version="1.1" id="Layer_1" xmlns="http://www.w3.org/2000/svg" xmlns:xlink="http://www.w3.org/1999/xlink" x="0px" y="0px"
	 width="105.218px" height="105.219px" viewBox="0 0 105.218 105.219" enable-background="new 0 0 105.218 105.219"
	 xml:space="preserve">
<path fill="#7C6A56" d="M54.596,75.944c-1.682,4.588-2.525,9.749-2.525,13.186c0,8.596,3.367,13.185,9.261,13.185h0.42
	c5.472,0,19.784-4.018,38.306-21.21c1.618-1.508,3.36-3.207,5.16-5.019V46.144c-4.397,4.283-9.472,8.096-14.421,11.465
	C78.589,65.634,64.276,72.507,54.596,75.944"/>
<path fill="#7C6A56" d="M30.183,86.835c0-2.293,0.42-6.303,0.84-8.025c-7.576,0.58-13.89,0-18.52-1.143
	C8.398,76.586,4.043,74.936,0,72.486v32.732h36.371c-4.186-4.1-6.188-10.233-6.188-17.812V86.835z"/>
<path fill="#82D1E3" d="M12.081,4.305c0,1.143-1.685,1.723-3.367,2.865C5.405,9.234,2.468,11.86,0,14.931v46.65
	c4.701,5.514,10.973,9.248,17.552,10.926c4.209,1.151,9.261,1.724,14.736,1.724c3.786-15.48,13.47-28.656,20.626-36.11
	c15.889-16.513,36.76-30.754,52.304-30.941V0H0v9.661c2.433-2.03,4.963-3.655,7.452-4.785C8.714,4.305,12.081,3.161,12.081,4.305"/>
<path fill="#7C6A56" d="M75.016,105.219h30.202V83.353c-1.071,1.062-2.097,2.042-3.055,2.911
	C92.875,94.695,83.705,101.066,75.016,105.219"/>
<path fill="#82D1E3" d="M103.005,22.649c0.42-5.16-1.262-8.025-5.051-8.025c-3.79,0-10.104,5.731-18.522,16.622
	c-6.734,8.596-17.26,26.933-22.309,38.395c8.419-2.864,19.784-9.167,28.623-17.192C96.27,42.708,102.583,30.666,103.005,22.649"/>
</svg>
